X: 8
T: The Broken Pledge
R: reel
M: 4/4
L: 1/8
K: Ddor
d^cAG AD{F}DD|^FcG=F EC {E}(3CB,C|DEFG Ad{e}dc|AcGc Adfe|
d^cAD (3E^FG AB|cccG (3E^FG CE|DE^FG Ad{e}d^c|AAGE D D D d||
d^cAG ^FdD (_E|=E2) cG ECC C|A,DFG Ad{e}dc|AA GE D g^fe|
d^cAD (3E^FG AB|cBcG (3E^FG CE|DE^FG Ad{e}d^c|(3ABA GE D3 d||
d^cAG AAde|ffdf ecAd|cCEG cccd|ec {e}c{B}c eage|
d^cAG AA de|f2df ecAG|F2FE FG (3A_B=B|cBcE ED D D||
^cdAG A=cde|fagf dcAd|cAGC (3E^FG cg|eccc Gcec|
d^cAG (3AdA de|f2df ecAG|F2FE FG (3A_B=B|cBcE ED DD||
d^cAG AD{F}DD|BcG=F EC {E}(3CB,C|DEFG Ad{e}dc|AcGc Adfe|
d^cAD (3E^FG AB|cBcG (3E^FG CE|DE^FG Ad{e}d^c|(3ABA GE D D D d||
d^cAG ^FdD (_E|=E2) cG EC (3CB,C|A,DFG Ad{e}dc|(3ABA GE D g^fe|
d^cAD (3E^FG AB|cBcG (3E^FG CE|DE^FG Ad{e}d^c|(3ABA GE ADD d||
d^cAG AAde|ffdf ecAd|cCEG cccd|ec {e}c{B}c eage|
d^cAG (3AdA de|ff df ecAG|FF FE FG (3A_B=B|cBcE ED D D||
^cdAG A=cde|fagf dcAd|cAGC (3E^FG cg|ec (3cBc Gcec|
d^cAG (3AdA de|f2df ecAG|F2FE FG (3A_B=B|cBcE ED CA,|[A,8D8]|]


Tune 1423	Setting 14794

